icon/cg/chevron-right-r.svg

<svg viewBox="0 0 24 24" fill="none" xmlns="http://www.w3.org/2000/svg" height="1em" width="1em">
  <path d="M16.4853 12.0451L12.2426 7.80249L10.8284 9.2167L13.6568 12.0451L10.8284 14.8736L12.2426 16.2878L16.4853 12.0451Z" fill="currentColor"/>
  <path fill-rule="evenodd" clip-rule="evenodd" d="M1 4C1 2.34315 2.34315 1 4 1H20C21.6569 1 23 2.34315 23 4V20C23 21.6569 21.6569 23 20 23H4C2.34315 23 1 21.6569 1 20V4ZM4 3H20C20.5523 3 21 3.44772 21 4V20C21 20.5523 20.5523 21 20 21H4C3.44772 21 3 20.5523 3 20V4C3 3.44772 3.44772 3 4 3Z" fill="currentColor"/>
</svg>

<svg width="24" height="24" fill="none" xmlns="http://www.w3.org/2000/svg"><path d="m16.485 12.045-4.242-4.243-1.415 1.415 2.829 2.828-2.829 2.829 1.415 1.414 4.242-4.243Z" fill="currentColor"/><path fill-rule="evenodd" clip-rule="evenodd" d="M1 4a3 3 0 0 1 3-3h16a3 3 0 0 1 3 3v16a3 3 0 0 1-3 3H4a3 3 0 0 1-3-3V4Zm3-1h16a1 1 0 0 1 1 1v16a1 1 0 0 1-1 1H4a1 1 0 0 1-1-1V4a1 1 0 0 1 1-1Z" fill="currentColor"/></svg>
